!!! OTL: Berkowitz275
!!! Chapter: 1
!!! Section: II
!!! Page: 65
!!! Mode: 
!!! Encoder: DJB
**kern
*staff1
*I"Piano
=1-
*clefG2
*k[f#]
*e:
*M6/8
8ee\L
8gg\
16ff#\L
16ee\JJ
8ff#\L
8aa\
16ff#\L
16ee\JJ
=2
16dd#\LL
16ee\
16ff#\
16gg\
16aa\
16ccc\JJ
4bb\
8gg\
=3
8.aa\L
16gg\L
16ff#\
16ee\JJ
8dd#\L
8ff#\
8aa\J
=4
16gg\LL
16aa\J
8bb\J
8r
4.r
=5
4ccc\
8ccc\
8ccc\L
8bb\
8aa#\J
=6
8bb\L
8gg\
8ff#\J
4ee\
8r
=7
!!linebreak:original
4aa\
8aa\
8gg\L
8ff#\
8ee\J
=8
16dd#\LL
16ee\J
8ff#\J
8r
4.r
=9
8ee\L
8gg\
16ee\L
16dd\JJ
16cc\LL
16ee\J
8ff#\
8aa#\J
=10
8bb\L
8ff#\
8aa\J
8gg\
8r
8cc\
=11
8b\L
16cc#\L
16dd#\J
8ee\J
8aa\L
8gg\
8ff#\J
=12
[4.ee\
4ee\]
8r
==
*-
